X:55
T:The Harvest Home
M:4/4
L:1/8
Q:120
C:Traditional
O:Mick Clancy
A:Manorhamilton Co. Leitrim
K:D
AF |:DAFA DAFA |defe dcBA |eAfA gefd |
(3efe (3dcB (3ABA (3GFE |DAFA DAFA |defe dcBA |eAfA gece |1
d2 dc d2 z2 :|2d2 dc d2 cd ||eA (3ABA fA (3ABA |eAfA eA (3ABA |
eAfA gefd |(3efe (3dcB (3ABA (3GFE |DAFA DAFA |defe dcBA |
eAfA geAe |d2 dc d2 z2 ||
